X:574
T: Jianshe zuguo haoshanhe
N: C1994
O: China,Fujian Shouning
S: II, 568]
R: Xiaodiao]
M: 2/4
L: 1/16
K: Bb
d2BGB2BB | dcB2c4 |
d3fdcB2 | c3dc4 |
B2B2d2GB | B2BGF4 |
G2D2F2F2 | Bcd2c2c2 | GFD2F2G2 | F4z4 |
d2dGBB2G | B2G2G2B2 | d3fdcB2 | c2d2c2z2 |
G2B2c2B2 | B2BGF4 |
G2D2F2F2 | Bcd2c2c2 | GFD2F2G2 | F4z4

@@@ Tune index: 7129
